www/assets/icons/settings_system_daydream.svg

<svg xmlns="http://www.w3.org/2000/svg" width="24" height="24" viewBox="0 0 24 24" fill='currentColor'><path d="M9 16h6.5a2.5 2.5 0 0 0 0-5h-.05c-.24-1.69-1.69-3-3.45-3-1.4 0-2.6.83-3.16 2.02h-.16A2.994 2.994 0 0 0 6 13c0 1.66 1.34 3 3 3M21 3H3c-1.1 0-2 .9-2 2v14c0 1.1.9 2 2 2h18c1.1 0 2-.9 2-2V5c0-1.1-.9-2-2-2m0 16.01H3V4.99h18z"/></svg>

<svg width="24" height="24" viewBox="0 0 24 24" xmlns="http://www.w3.org/2000/svg" fill='currentColor'><path d="M9 16H15.5C16.88 16 18 14.88 18 13.5C18 12.12 16.88 11 15.5 11H15.45C15.21 9.31 13.76 8 12 8C10.6 8 9.4 8.83 8.84 10.02H8.68C7.17 10.18 6 11.45 6 13C6 14.66 7.34 16 9 16ZM21 3H3C1.9 3 1 3.9 1 5V19C1 20.1 1.9 21 3 21H21C22.1 21 23 20.1 23 19V5C23 3.9 22.1 3 21 3ZM21 19.01H3V4.99H21V19.01Z"/></svg>
